X: 30925
T: Over The Moor To Maggie
R: reel
M: 4/4
K: Gmajor
|:BA|~G3A BABd|egge dBAG|EA~A3 BA ~A|EAAG AcBA|
~G3A BABd|egge dBAG|EG~G2 BG~G2|EGFA G2:|
|:ga|bg~g2 agef|~g3e d2Bd|ea~a2 ba~a2|eaag a2ga|
bg~g2 agef|~g3e d2Bd|eg~g2 bg~g2|egfa g2:|
|:cd|e2ec d2dB|c2cA B2AG|EA~A2 BA~A2|EAAG A2cd|
e2ec d2dB|c2cA B2AG|EG~G2 BG~G2|EGFA G2:|

